icons/plexis/48/goobox.svg

<svg viewBox="0 0 48 48" xmlns="http://www.w3.org/2000/svg" xmlns:xlink="http://www.w3.org/1999/xlink">
  <linearGradient id="a" gradientUnits="userSpaceOnUse" x2="0" y1="47" y2="1">
    <stop offset="0" stop-color="#49753f"/>
    <stop offset="1" stop-color="#518246"/>
  </linearGradient>
  <linearGradient id="b" gradientTransform="matrix(2.797157 0 0 2.797157 -332.97333 -741.65338)" gradientUnits="userSpaceOnUse" x2="0" y1="279.1" y2="268.33">
    <stop offset="0" stop-color="#c8c8c8"/>
    <stop offset="1" stop-color="#eaeaea"/>
  </linearGradient>
  <path d="m24 1c22.703 0 23 .297 23 23 0 22.703-.297 23-23 23-22.703 0-23-.297-23-23 0-22.703.297-23 23-23z" fill="url(#a)"/>
  <path d="m25 10c-8.285 0-15 6.715-15 15 0 8.281 6.715 14.996 15 14.996 8.281 0 14.996-6.715 14.996-14.996 0-8.285-6.715-15-14.996-15zm0 12.859c.59 0 1.129.238 1.516.621.387.387.625.926.625 1.52 0 .59-.238 1.129-.625 1.516-.387.387-.926.625-1.516.625-.594 0-1.133-.238-1.52-.625-.383-.387-.621-.926-.621-1.516 0-.594.238-1.133.621-1.52.387-.383.926-.621 1.52-.621z" fill-opacity=".098" fill-rule="evenodd"/>
  <path d="m24 9c-8.285 0-15 6.715-15 15 0 8.281 6.715 14.996 15 14.996 8.281 0 14.996-6.715 14.996-14.996 0-8.285-6.715-15-14.996-15m0 12.859c.59 0 1.129.238 1.516.621.387.387.625.926.625 1.52 0 .59-.238 1.129-.625 1.516-.387.387-.926.625-1.516.625-.594 0-1.133-.238-1.52-.625-.383-.387-.621-.926-.621-1.516 0-.594.238-1.133.621-1.52.387-.383.926-.621 1.52-.621z" fill="url(#b)" fill-rule="evenodd"/>
  <path d="m34.47 34.68c.691-.682 1.313-1.439 1.863-2.241.547-.799 1.023-1.667 1.41-2.569.387-.902.68-1.847.883-2.831.199-.983.309-2 .309-3.039h-10.635c0 .625-.16 1.226-.39 1.766-.227.54-.616 1.026-1.03 1.435l7.594 7.478" fill="#fff" fill-opacity=".498"/>
  <path d="m13.496 13.289c-.688.684-1.309 1.44-1.855 2.248-.547.808-1.02 1.674-1.402 2.578-.387.904-.68 1.851-.879 2.834-.203.986-.309 2.01-.309 3.051h10.664c0-.629.125-1.23.359-1.77.23-.544.563-1.033.973-1.44l-7.539-7.496m-.012-.004" fill="#fff" fill-opacity=".498"/>
  <path d="m10.343 30.21c.75 1.652 1.793 3.133 3.059 4.398l7.558-7.566c-.359-.363-.669-.801-.88-1.273" fill="#fff" fill-opacity=".498"/>
  <path d="m34.602 13.398l-7.562 7.562c.363.363.67.801.885 1.273l9.736-4.445c-.754-1.648-1.793-3.129-3.059-4.395" fill="#fff" fill-opacity=".498"/>
  <path d="m28.29 24c0 .397-.071.774-.172 1.139l10.348 2.861c.355-1.302.535-2.647.535-4z" fill="#999" fill-opacity=".498"/>
  <path d="m9.535 20.03c-.355 1.293-.535 2.629-.535 3.973h10.721c0-.393.069-.767.168-1.129z" fill="#999" fill-opacity=".498"/>
  <path d="m24 9v10.715c.002 0 .004 0 .006 0 .392 0 .764.069 1.125.168l2.842-10.348c-1.293-.355-2.629-.535-3.973-.535" fill="#ff8dff" fill-opacity=".498"/>
  <path d="m22.871 28.11l-2.844 10.352c1.293.355 2.629.535 3.973.535v-10.715c-.393 0-.768-.072-1.129-.172z" fill="#ff8dff" fill-opacity=".498"/>
  <path d="m24.01 19.715c-2.367 0-4.285 1.918-4.285 4.285 0 2.367 1.918 4.285 4.285 4.285 2.367 0 4.283-1.918 4.283-4.285 0-2.367-1.916-4.285-4.283-4.285zm-.006 2.145c.59 0 1.129.238 1.516.621.387.387.625.926.625 1.52 0 .59-.238 1.129-.625 1.516-.387.387-.926.625-1.516.625-.594 0-1.133-.238-1.52-.625-.383-.387-.621-.926-.621-1.516 0-.594.238-1.133.621-1.52.387-.383.926-.621 1.52-.621z" fill="#999" fill-opacity=".498"/>
</svg>

<svg xmlns="http://www.w3.org/2000/svg" viewBox="0 0 48 48">
 <defs>
  <linearGradient id="linearGradient4283" y1="47" x2="0" y2="1" gradientUnits="userSpaceOnUse">
   <stop style="stop-color:#49753f;stop-opacity:1"/>
   <stop offset="1" style="stop-color:#518246;stop-opacity:1"/>
  </linearGradient>
  <linearGradient id="linear0" gradientUnits="userSpaceOnUse" y1="279.1" x2="0" y2="268.33" gradientTransform="matrix(2.797157,0,0,2.797157,-332.97333,-741.65338)">
   <stop style="stop-color:#c8c8c8;stop-opacity:1"/>
   <stop offset="1" style="stop-color:#eaeaea;stop-opacity:1"/>
  </linearGradient>
 </defs>
 
 
 
 <path d="M 24,1 C 46.703,1 47,1.297 47,24 47,46.703 46.703,47 24,47 1.297,47 1,46.703 1,24 1,1.297 1.297,1 24,1 Z" style="fill:url(#linearGradient4283);fill-opacity:1"/>
 
 <path d="m 25,10 c -8.285,0 -15,6.715 -15,15 0,8.281 6.715,14.996 15,14.996 8.281,0 14.996,-6.715 14.996,-14.996 0,-8.285 -6.715,-15 -14.996,-15 z m 0,12.859 c 0.59,0 1.129,0.238 1.516,0.621 0.387,0.387 0.625,0.926 0.625,1.52 0,0.59 -0.238,1.129 -0.625,1.516 -0.387,0.387 -0.926,0.625 -1.516,0.625 -0.594,0 -1.133,-0.238 -1.52,-0.625 C 23.097,26.129 22.859,25.59 22.859,25 c 0,-0.594 0.238,-1.133 0.621,-1.52 0.387,-0.383 0.926,-0.621 1.52,-0.621 z" style="fill:#000;fill-opacity:0.098;stroke:none;fill-rule:evenodd"/>
 <path d="M 24,9 C 15.715,9 9,15.715 9,24 9,32.281 15.715,38.996 24,38.996 32.281,38.996 38.996,32.281 38.996,24 38.996,15.715 32.281,9 24,9 m 0,12.859 c 0.59,0 1.129,0.238 1.516,0.621 0.387,0.387 0.625,0.926 0.625,1.52 0,0.59 -0.238,1.129 -0.625,1.516 -0.387,0.387 -0.926,0.625 -1.516,0.625 -0.594,0 -1.133,-0.238 -1.52,-0.625 C 22.097,25.129 21.859,24.59 21.859,24 c 0,-0.594 0.238,-1.133 0.621,-1.52 0.387,-0.383 0.926,-0.621 1.52,-0.621 z" style="fill:url(#linear0);stroke:none;fill-rule:evenodd"/>
 <path d="m 34.47,34.68 c 0.691,-0.682 1.313,-1.439 1.863,-2.241 0.547,-0.799 1.023,-1.667 1.41,-2.569 0.387,-0.902 0.68,-1.847 0.883,-2.831 0.199,-0.983 0.309,-2 0.309,-3.039 L 28.3,24 c 0,0.625 -0.16,1.226 -0.39,1.766 -0.227,0.54 -0.616,1.026 -1.03,1.435 l 7.594,7.478" style="fill:#fff;fill-opacity:0.498;stroke:none;fill-rule:nonzero"/>
 <path d="m 13.496,13.289 c -0.688,0.684 -1.309,1.44 -1.855,2.248 -0.547,0.808 -1.02,1.674 -1.402,2.578 C 9.852,19.019 9.559,19.966 9.36,20.949 9.157,21.935 9.051,22.959 9.051,24 l 10.664,0 c 0,-0.629 0.125,-1.23 0.359,-1.77 0.23,-0.544 0.563,-1.033 0.973,-1.44 L 13.508,13.294 M 13.496,13.29" style="fill:#fff;fill-opacity:0.498;stroke:none;fill-rule:nonzero"/>
 <path d="m 10.343 30.21 c 0.75 1.652 1.793 3.133 3.059 4.398 l 7.558 -7.566 c -0.359 -0.363 -0.669 -0.801 -0.88 -1.273" style="fill:#fff;fill-opacity:0.498;stroke:none;fill-rule:nonzero"/>
 <path d="M 34.602,13.398 27.04,20.96 c 0.363,0.363 0.67,0.801 0.885,1.273 l 9.736,-4.445 C 36.907,16.14 35.868,14.659 34.602,13.393" style="fill:#fff;fill-opacity:0.498;stroke:none;fill-rule:nonzero"/>
 <path d="m 28.29,24 c 0,0.397 -0.071,0.774 -0.172,1.139 L 38.466,28 c 0.355,-1.302 0.535,-2.647 0.535,-4 L 28.29,24 Z" style="fill:#999;fill-opacity:0.498;stroke:none;fill-rule:nonzero"/>
 <path d="M 9.535,20.03 C 9.18,21.323 9,22.659 9,24.003 l 10.721,0 c 0,-0.393 0.069,-0.767 0.168,-1.129 L 9.535,20.03" style="fill:#999;fill-opacity:0.498;stroke:none;fill-rule:nonzero"/>
 <path d="m 24,9 0,10.715 c 0.002,0 0.004,0 0.006,0 0.392,0 0.764,0.069 1.125,0.168 L 27.973,9.535 C 26.68,9.18 25.344,9 24,9" style="fill:#ff8dff;fill-opacity:0.498;stroke:none;fill-rule:nonzero"/>
 <path d="m 22.871 28.11 -2.844 10.352 c 1.293 0.355 2.629 0.535 3.973 0.535 l 0 -10.715 c -0.393 0 -0.768 -0.072 -1.129 -0.172 z" style="fill:#ff8dff;fill-opacity:0.498;stroke:none;fill-rule:nonzero"/>
 <path d="m 24.01 19.715 c -2.367 0 -4.285 1.918 -4.285 4.285 0 2.367 1.918 4.285 4.285 4.285 2.367 0 4.283 -1.918 4.283 -4.285 0 -2.367 -1.916 -4.285 -4.283 -4.285 z m -0.006 2.145 c 0.59 0 1.129 0.238 1.516 0.621 0.387 0.387 0.625 0.926 0.625 1.52 0 0.59 -0.238 1.129 -0.625 1.516 -0.387 0.387 -0.926 0.625 -1.516 0.625 -0.594 0 -1.133 -0.238 -1.52 -0.625 -0.383 -0.387 -0.621 -0.926 -0.621 -1.516 0 -0.594 0.238 -1.133 0.621 -1.52 0.387 -0.383 0.926 -0.621 1.52 -0.621 z" style="fill:#999;fill-opacity:0.498;stroke:none;fill-rule:nonzero"/>
</svg>
